X:1
T:Title
%%score { ( 1 3 ) | ( 2 4 ) }
L:1/8
Q:1/4=95
M:6/8
K:Ab
V:1 treble nm="Grand Piano"
V:3 treble 
V:2 bass 
V:4 bass 
V:1
 [CE]2 [CA] [DB]2 [CA] | [Ec]3 [CE]3 | [DF] [Fd]2 [FA]2 [=EB] | [Ec]6 | [Ae]2 [Ec] [Ed]2 [Ec] | %5
w: M.~L.~McPhail * * *|||||
 [DB]3 [DF]3 | [=DB]2 [DB] [Dc]2 [DB] | E6 | [CE]2 [CA] [DB]2 [CA] | [Ec]3 [CE]3 | %10
w: |||||
 [DF] [Fd]2 [FA]2 [=EB] | [Ec]6 | [Ae]2 [Ec] [Ed]2 [Ec] | [DB]2 [DF] [FB]2 [Fd] | [Ec]3 [DB]3 | %15
w: |||||
 [CA]6 | e3 .c3 | A3 G3 | d2 E E2 d | [Ec]6 | [Ae]2 [Ec] [Ed]2 [Ec] | [DB]3 [DF]3 | %22
w: |||||||
 [=DB]2 [DB] [Ec]2 [F=d] | e6 | e3 .c3 | A3 G3 | d2 E E2 d | [Ec]6 | [Ae]2 [Ec] [Ed]2 [Ec] | %29
w: |||||||
 [DB]2 [DF] [FB]2 [Fd] | [Ec]3 [DB]3 |[M:7/4] [CA]6 z2 z2 z4 |] %32
w: |||
V:2
 [A,,A,]2 [A,,E,] [A,,E,]2 [A,,E,] | [A,,A,]3 [A,,A,]3 | [D,A,] [D,A,]2 [D,A,]2 [D,A,] | [A,,A,]6 | %4
 [A,,C]2 [A,,A,] [B,,G,]2 [C,A,] | [D,F,]3 [D,B,]3 | [B,,B,]2 [B,,B,] [B,,A,]2 [B,,A,] | [E,G,]6 | %8
 [A,,A,]2 [A,,E,] [A,,E,]2 [A,,E,] | [A,,A,]3 [A,,A,]3 | [D,A,] [D,A,]2 [D,A,]2 [D,A,] | [A,,A,]6 | %12
 [A,,C]2 [A,,A,] [B,,G,]2 [C,A,] | [D,F,]2 [D,A,] [D,A,]2 [D,A,] | [E,A,]3 [E,G,]3 | [A,,E,A,]6 | %16
 [A,CA][A,C][A,E] [A,CE][A,C][K:bass][A,CE] | [E,B,D][E,B,][E,B,] [E,B,D]2 [E,B,] | %18
 [E,G,E]2 [E,G,] [E,G,]2 [E,G,E] | [A,,A,]6 | [A,C]2 [A,,A,] [B,,G,]2 [C,A,] | [D,F,]3 [D,B,]3 | %22
 [B,,B,]2 [B,,B,] [B,,A,]2 [B,,A,] | [G,E]3 z3 | [A,CA][A,C][A,C] [A,E]A,[K:bass][A,CE] | %25
 [E,B,D][E,B,][E,B,] [E,B,D]2 [E,B,] | [E,G,E]2 [E,G,] [E,G,]2 [E,G,E] | [A,,A,]6 | %28
 [A,,C]2 [A,,A,] [B,,G,]2 [C,A,] | [D,F,]2 [D,A,] [D,A,]2 [D,A,] | [E,A,]3 [E,G,]3 | %31
[M:7/4] [A,,E,A,]6 z2 z2 z4 |] %32
V:3
 x6 | x6 | x6 | x6 | x6 | x6 | x6 | z3 D3 | x6 | x6 | x6 | x6 | x6 | x6 | x6 | x6 | z AA z EA | %17
 z DD z2 D | x6 | x6 | x6 | x6 | x6 | z3 G3 | z AA z EA | z DD z2 D | x6 | x6 | x6 | x6 | x6 | %31
[M:7/4] x14 |] %32
V:4
 x6 | x6 | x6 | x6 | x6 | x6 | x6 | x6 | x6 | x6 | x6 | x6 | x6 | x6 | x6 | x6 | x5[K:bass] x | %17
 x6 | x6 | x6 | x6 | x6 | x6 | E,3- [E,D]3 | x5[K:bass] x | x6 | x6 | x6 | x6 | x6 | x6 | %31
[M:7/4] x14 |] %32

